src/48x48/places/folder-gruvbox-mix-yellow-books.svg

<?xml version="1.0" encoding="UTF-8"?>
<svg width="48" height="48" version="1" xmlns="http://www.w3.org/2000/svg">
 <rect x="4" y="17" width="40" height="26" rx="2" ry="2" opacity=".2"/>
 <path d="m4 34c0 1.108 0.892 2 2 2h36c1.108 0 2-0.892 2-2v-22c0-1.108-0.892-2-2-2h-18c-3 0-4-4-7-4h-11c-1.108 0-2 0.892-2 2" fill="#b4730e"/>
 <rect x="4" y="15" width="40" height="26" rx="2" ry="2" opacity=".2"/>
 <rect x="6" y="13" width="36" height="16" rx="2" ry="2" fill="#fae7b3"/>
 <rect x="4" y="16" width="40" height="26" rx="2" ry="2" fill="#e9b143"/>
 <path d="m6 6c-1.108 0-2 0.892-2 2v1c0-1.108 0.892-2 2-2h11c3 0 4 4 7 4h18c1.108 0 2 0.892 2 2v-1c0-1.108-0.892-2-2-2h-18c-3 0-4-4-7-4z" fill="#fae7b3" opacity=".1"/>
 <path d="m19 23c-2 0-3 1-3 1v7s1-1 3-1 4 2 4 2v-7s-2-2-4-2zm10 0c-2 0-4 2-4 2v7s2-2 4-2 3 1 3 1v-7s-1-1-3-1zm-10 8c-2 0-3 1-3 1v2s1-1 3-1 4 2 4 2v-2s-2-2-4-2zm10 0c-2 0-4.0051 1.9927-4 2v2s2-2 4-2 3 1 3 1v-2s-1-1-3-1z" fill="#4f422e"/>
</svg>

<svg xmlns="http://www.w3.org/2000/svg" width="48" height="48" version="1">
 <rect style="opacity:0.2" width="40" height="26" x="4" y="17" rx="2" ry="2"/>
 <path style="fill:#b4730e" d="M 4,34 C 4,35.108 4.892,36 6,36 H 42 C 43.108,36 44,35.108 44,34 V 12 C 44,10.892 43.108,10 42,10 H 24 C 21,10 20,6 17,6 H 6 C 4.892,6 4,6.892 4,8"/>
 <rect style="opacity:0.2" width="40" height="26" x="4" y="15" rx="2" ry="2"/>
 <rect style="fill:#fae7b3" width="36" height="16" x="6" y="13" rx="2" ry="2"/>
 <rect style="fill:#e9b143" width="40" height="26" x="4" y="16" rx="2" ry="2"/>
 <path style="opacity:0.1;fill:#fae7b3" d="M 6,6 C 4.892,6 4,6.892 4,8 V 9 C 4,7.892 4.892,7 6,7 H 17 C 20,7 21,11 24,11 H 42 C 43.108,11 44,11.892 44,13 V 12 C 44,10.892 43.108,10 42,10 H 24 C 21,10 20,6 17,6 Z"/>
 <path style="fill:#4f422e" d="m19 23c-2 0-3 1-3 1v7s1-1 3-1 4 2 4 2v-7s-2-2-4-2zm10 0c-2 0-4 2-4 2v7s2-2 4-2 3 1 3 1v-7s-1-1-3-1zm-10 8c-2 0-3 1-3 1v2s1-1 3-1 4 2 4 2v-2s-2-2-4-2zm10 0c-2 0-4.005064 1.992688-4 2v2s2-2 4-2 3 1 3 1v-2s-1-1-3-1z"/>
</svg>
